Numix-Light/16/status/indicator-keyboard-En-2.svg

<?xml version="1.0" encoding="UTF-8" standalone="no"?>
<svg
   xmlns:dc="http://purl.org/dc/elements/1.1/"
   xmlns:cc="http://creativecommons.org/ns#"
   xmlns:rdf="http://www.w3.org/1999/02/22-rdf-syntax-ns#"
   xmlns:svg="http://www.w3.org/2000/svg"
   xmlns="http://www.w3.org/2000/svg"
   xmlns:sodipodi="http://sodipodi.sourceforge.net/DTD/sodipodi-0.dtd"
   xmlns:inkscape="http://www.inkscape.org/namespaces/inkscape"
   viewBox="0 0 16 16"
   id="svg2"
   version="1.1"
   inkscape:version="0.91 r13725"
   sodipodi:docname="indicator-keyboard-En-2.svg">
  <metadata
     id="metadata14">
    <rdf:RDF>
      <cc:Work
         rdf:about="">
        <dc:format>image/svg+xml</dc:format>
        <dc:type
           rdf:resource="http://purl.org/dc/dcmitype/StillImage" />
      </cc:Work>
    </rdf:RDF>
  </metadata>
  <defs
     id="defs12" />
  <sodipodi:namedview
     pagecolor="#ffffff"
     bordercolor="#666666"
     borderopacity="1"
     objecttolerance="10"
     gridtolerance="10"
     guidetolerance="10"
     inkscape:pageopacity="0"
     inkscape:pageshadow="2"
     inkscape:window-width="640"
     inkscape:window-height="480"
     id="namedview10"
     showgrid="false"
     inkscape:zoom="14.75"
     inkscape:cx="8"
     inkscape:cy="8"
     inkscape:window-x="65"
     inkscape:window-y="24"
     inkscape:window-maximized="0"
     inkscape:current-layer="svg2" />
  <path
     style="fill:#353535;fill-opacity:1"
     d="M 1.5996094 0 C 0.71320937 2.9605947e-16 0 0.71320937 0 1.5996094 L 0 14.400391 C 2.9605947e-16 15.286791 0.71320937 16 1.5996094 16 L 14.400391 16 C 15.286791 16 16 15.286791 16 14.400391 L 16 1.5996094 C 16 0.71320937 15.286791 0 14.400391 0 L 1.5996094 0 z M 1.9472656 4.859375 L 5.546875 4.859375 L 5.546875 5.390625 L 2.5585938 5.390625 L 2.5585938 7.5585938 L 5.2226562 7.5585938 L 5.2226562 8.0800781 L 2.5585938 8.0800781 L 2.5585938 10.564453 L 5.78125 10.564453 L 5.78125 11.095703 L 1.9472656 11.095703 L 1.9472656 4.859375 z M 8.6855469 6.3535156 C 9.0395469 6.3535156 9.3343594 6.4038594 9.5683594 6.5058594 C 9.8083594 6.6078594 9.9967654 6.7552656 10.134766 6.9472656 C 10.278766 7.1332656 10.381406 7.3570938 10.441406 7.6210938 C 10.501406 7.8850938 10.53125 8.1761406 10.53125 8.4941406 L 10.53125 11.095703 L 9.9453125 11.095703 L 9.9453125 8.6835938 C 9.9453125 8.3535938 9.9210469 8.0756562 9.8730469 7.8476562 C 9.8310469 7.6196563 9.7564375 7.4330625 9.6484375 7.2890625 C 9.5464375 7.1450625 9.408375 7.0424219 9.234375 6.9824219 C 9.066375 6.9164219 8.8537031 6.8847656 8.5957031 6.8847656 C 8.3197031 6.8847656 8.079 6.8996875 7.875 6.9296875 C 7.677 6.9596875 7.5482812 6.9857656 7.4882812 7.0097656 L 7.4882812 11.095703 L 6.9042969 11.095703 L 6.9042969 6.6054688 C 7.0782969 6.5574688 7.3114688 6.5033594 7.6054688 6.4433594 C 7.8994688 6.3833594 8.2595469 6.3535156 8.6855469 6.3535156 z M 12.724609 8.7539062 C 13.118509 8.7539062 13.414381 8.851875 13.613281 9.046875 C 13.812181 9.237975 13.912109 9.5044563 13.912109 9.8476562 C 13.912109 9.9997563 13.884678 10.14475 13.830078 10.28125 C 13.775478 10.41385 13.701022 10.543169 13.607422 10.667969 C 13.517722 10.792769 13.415828 10.912297 13.298828 11.029297 C 13.181828 11.146297 13.062306 11.263859 12.941406 11.380859 C 12.840006 11.478359 12.740078 11.578288 12.642578 11.679688 C 12.548978 11.777187 12.462766 11.877116 12.384766 11.978516 C 12.310666 12.076016 12.251878 12.172031 12.205078 12.269531 C 12.162178 12.363131 12.140625 12.457181 12.140625 12.550781 L 12.140625 12.5625 L 14.052734 12.5625 L 14.052734 12.896484 L 11.71875 12.896484 C 11.71875 12.888684 11.716757 12.874969 11.712891 12.855469 L 11.712891 12.755859 C 11.712891 12.572559 11.7462 12.402094 11.8125 12.246094 C 11.8788 12.086194 11.963053 11.937275 12.064453 11.796875 C 12.169753 11.656475 12.283403 11.525197 12.408203 11.404297 C 12.536903 11.283397 12.660344 11.165834 12.777344 11.052734 C 12.874844 10.959134 12.966934 10.869003 13.052734 10.783203 C 13.142434 10.693503 13.220809 10.603366 13.287109 10.509766 C 13.353409 10.416166 13.406313 10.316237 13.445312 10.210938 C 13.484312 10.105638 13.501953 9.9900344 13.501953 9.8652344 C 13.501953 9.5922344 13.42945 9.39825 13.28125 9.28125 C 13.13695 9.16035 12.952769 9.0996094 12.730469 9.0996094 C 12.605669 9.0996094 12.493984 9.1152844 12.396484 9.1464844 C 12.298984 9.1776844 12.214725 9.2149125 12.140625 9.2578125 C 12.070425 9.2968125 12.009684 9.3379594 11.958984 9.3808594 C 11.908284 9.4237594 11.871056 9.4570688 11.847656 9.4804688 L 11.648438 9.2167969 C 11.671838 9.1894969 11.712984 9.1503094 11.771484 9.0996094 C 11.833884 9.0450094 11.9103 8.9921062 12 8.9414062 C 12.0936 8.8907063 12.199413 8.8476 12.320312 8.8125 C 12.441212 8.7735 12.576409 8.7539063 12.724609 8.7539062 z "
     id="path4" />
</svg>

<svg xmlns="http://www.w3.org/2000/svg" viewBox="0 0 16 16">
 <path d="m 1.6 0 c -0.886 0 -1.6 0.713 -1.6 1.6 l 0 12.801 c 0 0.886 0.713 1.6 1.6 1.6 l 12.801 0 c 0.886 0 1.6 -0.713 1.6 -1.6 l 0 -12.801 c 0 -0.886 -0.713 -1.6 -1.6 -1.6 l -12.801 0 z m 0.348 4.859 l 3.6 0 l 0 0.531 l -2.988 0 l 0 2.168 l 2.664 0 l 0 0.521 l -2.664 0 l 0 2.484 l 3.223 0 l 0 0.531 l -3.834 0 l 0 -6.236 z m 6.738 1.494 c 0.354 0 0.649 0.05 0.883 0.152 c 0.24 0.102 0.428 0.249 0.566 0.441 c 0.144 0.186 0.247 0.41 0.307 0.674 c 0.06 0.264 0.09 0.555 0.09 0.873 l 0 2.602 l -0.586 0 l 0 -2.412 c 0 -0.33 -0.024 -0.608 -0.072 -0.836 c -0.042 -0.228 -0.117 -0.415 -0.225 -0.559 c -0.102 -0.144 -0.24 -0.247 -0.414 -0.307 c -0.168 -0.066 -0.381 -0.098 -0.639 -0.098 c -0.276 0 -0.517 0.015 -0.721 0.045 c -0.198 0.03 -0.327 0.056 -0.387 0.08 l 0 4.086 l -0.584 0 l 0 -4.49 c 0.174 -0.048 0.407 -0.102 0.701 -0.162 c 0.294 -0.06 0.654 -0.09 1.08 -0.09 z m 4.04 2.4 c 0.394 0 0.69 0.098 0.889 0.293 c 0.199 0.191 0.299 0.458 0.299 0.801 c 0 0.152 -0.027 0.297 -0.082 0.434 c -0.055 0.133 -0.129 0.262 -0.223 0.387 c -0.09 0.125 -0.192 0.244 -0.309 0.361 c -0.117 0.117 -0.237 0.235 -0.357 0.352 c -0.101 0.098 -0.201 0.197 -0.299 0.299 c -0.094 0.097 -0.18 0.197 -0.258 0.299 c -0.074 0.097 -0.133 0.194 -0.18 0.291 c -0.043 0.094 -0.064 0.188 -0.064 0.281 l 0 0.012 l 1.912 0 l 0 0.334 l -2.334 0 c 0 -0.008 -0.002 -0.022 -0.006 -0.041 l 0 -0.1 c 0 -0.183 0.033 -0.354 0.1 -0.51 c 0.066 -0.16 0.151 -0.309 0.252 -0.449 c 0.105 -0.14 0.219 -0.272 0.344 -0.393 c 0.129 -0.121 0.252 -0.238 0.369 -0.352 c 0.098 -0.094 0.19 -0.184 0.275 -0.27 c 0.09 -0.09 0.168 -0.18 0.234 -0.273 c 0.066 -0.094 0.119 -0.194 0.158 -0.299 c 0.039 -0.105 0.057 -0.221 0.057 -0.346 c 0 -0.273 -0.073 -0.467 -0.221 -0.584 c -0.144 -0.121 -0.328 -0.182 -0.551 -0.182 c -0.125 0 -0.236 0.016 -0.334 0.047 c -0.097 0.031 -0.182 0.068 -0.256 0.111 c -0.07 0.039 -0.131 0.08 -0.182 0.123 c -0.051 0.043 -0.088 0.076 -0.111 0.1 l -0.199 -0.264 c 0.023 -0.027 0.065 -0.066 0.123 -0.117 c 0.062 -0.055 0.139 -0.108 0.229 -0.158 c 0.094 -0.051 0.199 -0.094 0.32 -0.129 c 0.121 -0.039 0.256 -0.059 0.404 -0.059 z" style="fill:#353535;fill-opacity:1"/>
</svg>
